icon-themes/sifr_svg/cmd/sc_zoomprevious.svg

<svg viewBox="0 0 16 16" xmlns="http://www.w3.org/2000/svg"><path d="m3 1c-1.108 0-2 .892-2 2v10c0 1.108.892 2 2 2h10c1.108 0 2-.892 2-2v-10c0-1.108-.892-2-2-2zm7 2h.585938.414062v1c0 .25689-.12983.52846-.3125.71875l-3.6875 3.28125 3.6875 3.28125c.18267.19029.3125.97564.3125.71875v1h-.414062-.585938c-.30945 0-.55232-.0903-.75-.28125l-4.25-3.8496094v-1.7832031l4.25-3.8046875c.19768-.19095.44055-.28125.75-.28125z" fill="#555753"/></svg>

<svg xmlns="http://www.w3.org/2000/svg" viewBox="0 0 16 16">
  <path
     style="fill:#555753"
     d="M 3 1 C 1.892 1 1 1.892 1 3 L 1 13 C 1 14.108 1.892 15 3 15 L 13 15 C 14.108 15 15 14.108 15 13 L 15 3 C 15 1.892 14.108 1 13 1 L 3 1 z M 10 3 L 10.585938 3 L 11 3 L 11 4 C 11 4.25689 10.87017 4.52846 10.6875 4.71875 L 7 8 L 10.6875 11.28125 C 10.87017 11.47154 11 12.25689 11 12 L 11 13 L 10.585938 13 L 10 13 C 9.69055 13 9.44768 12.9097 9.25 12.71875 L 5 8.8691406 L 5 7.0859375 L 9.25 3.28125 C 9.44768 3.0903 9.69055 3 10 3 z "
     />
</svg>
